X:123
T:City Of Savannah, The
R:hornpipe
C:Frank Livingston
D:Matt Molloy: Stony Steps
Z:id:hn-hornpipe-123
M:C|
L:1/8
K:D
dB | ADFA dfaf | gaba gfed | cded cdBc | (3ABA ^GA =GAFG |
ADFA dfaf | gaba gfed | cdBc ABGA | FABc d2 :|
|: zf | e2ce aec'e | be^ge aec'e | fece aec'e | ^gbe^g a2ba |
~a2^ga =geca | ~a2^ga fdA2 | (3gag A2 (3fgf A2 | (3efe (3ABc d2 :| 

